X: 39
T: SMILING POLLY
B: "Old English Country Dances", Frank Kidson ed., William Reeves pub., London 1890
Z: 2010-9-26 John Chambers <jc:trillian.mit.edu>
M: 2/4
L: 1/8
K: D
|: [f2A2D2] df | g2 eg | [f2A2D2] df | e/d/c/B/ A2 |\
   [f2A2D2] df | g2 eg | fa Ac | d2 D2 :|
|: FD AF | dA g2 | fe/d/ cd | e/d/c/B/A2 |\
   FD AF | dA g2 | fg/a/ Ac | d2 D2 :|


%%sep 1 1 500

%%sep 1 1 500

